;FLAVOR:Marlin
;TIME:2122
;Filament used: 1.98727m
;Layer height: 0.2
;Generated with Cura_SteamEngine 3.3.1
M104 S205
M109 S205
M82 ;absolute extrusion mode
G28 ;Home
G1 Z15.0 F6000 ;Move the platform down 15mm
;Prime the extruder
G92 E0
G1 F200 E3
G92 E0
G92 E0
G1 F1500 E-6.5
;LAYER_COUNT:15
;LAYER:0
M107
G0 F3600 X119.253 Y56.001 Z0.3
;TYPE:WALL-INNER
G1 F1500 E0
G1 X118.909 Y57.374 E0.07062
G1 X118.721 Y58.126 E0.10929
G1 X118.523 Y57.376 E0.12924
G1 X117.268 Y52.639 E0.37372
G1 X116.558 Y52.424 E0.41073
G1 X115.133 Y52.113 E0.4835
G1 X113.667 Y51.977 E0.55695
G1 X112.198 Y52.022 E0.63027
G1 X110.744 Y52.248 E0.70369
G1 X109.328 Y52.651 E0.77714
G1 X107.973 Y53.224 E0.85053
G1 X106.698 Y53.96 E0.92398
G1 X105.524 Y54.848 E0.99742
G1 X104.467 Y55.872 E1.07084
G1 X103.544 Y57.018 E1.14425
G1 X102.769 Y58.269 E1.21767
G1 X102.154 Y59.607 E1.29114
G1 X101.71 Y61.007 E1.36441
G1 X101.562 Y61.765 E1.40295
G1 X66.557 Y61.678 E3.14936
G1 X66.556 Y61.677 E3.14943
G1 X65.713 Y61.676 E3.19149
G1 X66.468 Y61.3 E3.21309
G1 X68.497 Y60.288 E3.32621
G1 X71.931 Y58.012 E3.53174
G1 X75.059 Y55.332 E3.73724
G1 X77.824 Y52.3 E3.94197
G1 X78.256 Y51.753 E3.97674
G1 X78.772 Y50.976 E4.02327
G1 X79.638 Y49.358 E4.11483
G1 X80.304 Y47.638 E4.20685
G1 X80.754 Y45.851 E4.29879
G1 X80.981 Y44.019 E4.39089
G1 X80.981 Y42.177 E4.48278
G1 X80.754 Y40.345 E4.57488
G1 X80.542 Y39.503 E4.6182
G1 X80.471 Y39.22 E4.63276
G1 X80.76 Y39.256 E4.64128
G1 X83.278 Y39.569 E4.76787
G1 X90.58 Y39.793 E5.13234
G1 X97.857 Y39.119 E5.49695
G1 X101.465 Y38.444 E5.68007
G1 X103.038 Y38.251 E5.75914
G1 X106.031 Y37.594 E5.91202
G1 X108.929 Y36.574 E6.06529
G1 X111.68 Y35.204 E6.21862
G1 X114.242 Y33.507 E6.37193
G1 X116.575 Y31.507 E6.52524
G1 X118.646 Y29.235 E6.67862
G1 X120.422 Y26.727 E6.83194
G1 X121.873 Y24.024 E6.98499
G1 X121.995 Y23.725 E7.0011
G1 X122.169 Y23.3 E7.02401
G1 X122.361 Y23.717 E7.03641
G1 X123.133 Y25.396 E7.12861
G1 X124.751 Y28.009 E7.28194
G1 X126.679 Y30.403 E7.4353
G1 X128.885 Y32.542 E7.5886
G1 X131.337 Y34.395 E7.74193
G1 X133.999 Y35.931 E7.89526
G1 X136.829 Y37.129 E8.04858
G1 X139.785 Y37.969 E8.20189
G1 X150.091 Y39.568 E8.72221
G1 X157.401 Y39.793 E9.08708
G1 X163.644 Y39.212 E9.39989
G1 X163.743 Y39.203 E9.40485
G1 X163.84 Y39.194 E9.40971
G1 X163.765 Y39.451 E9.41382
G1 X163.747 Y39.549 E9.41804
G1 X163.429 Y41.258 E9.50476
G1 X163.316 Y43.098 E9.59673
G1 X163.429 Y44.938 E9.6887
G1 X163.768 Y46.751 E9.78072
G1 X164.327 Y48.509 E9.87276
G1 X165.097 Y50.185 E9.96477
G1 X166.068 Y51.752 E10.05674
G1 X167.834 Y53.858 E10.19387
G1 X170.789 Y56.72 E10.3991
G1 X174.075 Y59.203 E10.60458
G1 X177.641 Y61.261 E10.80999
G1 X177.715 Y61.293 E10.81401
G1 X178.605 Y61.674 E10.86231
G1 X177.637 Y61.676 E10.88696
G1 X142.78 Y61.764 E12.62599
G1 X142.415 Y60.301 E12.70121
G1 X141.884 Y58.929 E12.77461
G1 X141.187 Y57.631 E12.84811
G1 X140.336 Y56.431 E12.92151
G1 X139.346 Y55.343 E12.9949
G1 X138.228 Y54.385 E13.06835
G1 X137 Y53.572 E13.14183
G1 X135.683 Y52.916 E13.21523
G1 X134.295 Y52.428 E13.28863
G1 X132.857 Y52.113 E13.36208
G1 X131.391 Y51.977 E13.43553
G1 X129.923 Y52.022 E13.5088
G1 X128.473 Y52.247 E13.58201
G1 X127.061 Y52.627 E13.65496
G1 X125.803 Y57.377 E13.90011
G1 X125.605 Y58.126 E13.93876
G1 X125.417 Y57.375 E13.95867
G1 X125.072 Y56.001 E14.02935
G1 X119.253 Y56.001 E14.31966
G0 F3600 X119.192 Y55.923
G0 X124.76 Y55.901
G0 X124.76 Y56.401
;TYPE:WALL-OUTER
G1 F1500 X119.565 Y56.401 E14.57884
G1 X118.919 Y58.977 E14.71134
G1 X118.731 Y59.729 E14.75001
G1 X118.533 Y58.979 E14.76996
G1 X116.938 Y52.957 E15.08076
G1 X116.457 Y52.811 E15.10584
G1 X115.072 Y52.509 E15.17656
G1 X113.655 Y52.378 E15.24755
G1 X112.235 Y52.421 E15.31843
G1 X110.83 Y52.639 E15.38936
G1 X109.461 Y53.029 E15.46038
G1 X108.152 Y53.583 E15.53129
G1 X106.919 Y54.294 E15.6023
G1 X105.785 Y55.152 E15.67325
G1 X104.763 Y56.142 E15.74424
G1 X103.871 Y57.25 E15.8152
G1 X103.122 Y58.459 E15.88616
G1 X102.528 Y59.752 E15.95715
G1 X102.098 Y61.106 E16.02802
G1 X101.892 Y62.166 E16.08189
G1 X64.826 Y62.074 E17.93113
G1 X64.657 Y62.074 E17.93956
G1 X63.855 Y62.071 E17.97957
G1 X64.658 Y61.754 E17.99817
G1 X64.809 Y61.679 E18.00576
G1 X68.297 Y59.941 E18.20018
G1 X71.689 Y57.692 E18.40322
G1 X74.78 Y55.044 E18.60629
G1 X77.519 Y52.041 E18.80906
G1 X77.932 Y51.518 E18.84231
G1 X78.428 Y50.771 E18.88705
G1 X79.274 Y49.191 E18.97646
G1 X79.922 Y47.517 E19.06602
G1 X80.36 Y45.777 E19.15553
G1 X80.581 Y43.994 E19.24517
G1 X80.581 Y42.202 E19.33457
G1 X80.36 Y40.419 E19.42421
G1 X80.012 Y39.034 E19.49545
G1 X79.941 Y38.751 E19.51001
G1 X80.23 Y38.787 E19.51853
G1 X83.309 Y39.17 E19.67333
G1 X90.568 Y39.392 E20.03565
G1 X97.802 Y38.722 E20.3981
G1 X101.405 Y38.048 E20.58098
G1 X102.971 Y37.856 E20.65969
G1 X105.921 Y37.209 E20.81036
G1 X108.773 Y36.205 E20.96121
G1 X111.48 Y34.857 E21.11208
G1 X114 Y33.187 E21.2629
G1 X116.296 Y31.219 E21.41377
G1 X118.334 Y28.984 E21.56467
G1 X120.081 Y26.516 E21.71553
G1 X121.511 Y23.853 E21.86633
G1 X121.983 Y22.696 E21.92867
G1 X122.098 Y22.414 E21.94387
G1 X122.154 Y22.277 E21.95125
G1 X122.224 Y22.464
G1 X122.351 Y22.741 E21.96182
G1 X123.486 Y25.206 E22.09721
G1 X125.078 Y27.777 E22.24808
G1 X126.975 Y30.133 E22.39899
G1 X129.146 Y32.238 E22.54985
G1 X131.558 Y34.061 E22.70069
G1 X134.178 Y35.572 E22.85158
G1 X136.962 Y36.751 E23.00242
G1 X139.871 Y37.578 E23.1533
G1 X150.128 Y39.169 E23.67114
G1 X157.389 Y39.392 E24.03357
G1 X164.098 Y38.768 E24.36973
G1 X164.39 Y38.741 E24.38436
G1 X164.308 Y39.023 E24.39295
G1 X164.155 Y39.544 E24.42004
G1 X163.827 Y41.307 E24.5095
G1 X163.717 Y43.098 E24.59902
G1 X163.827 Y44.889 E24.68854
G1 X164.157 Y46.653 E24.77808
G1 X164.701 Y48.364 E24.86765
G1 X165.45 Y49.995 E24.95719
G1 X166.393 Y51.517 E25.04652
G1 X168.127 Y53.585 E25.18116
G1 X171.05 Y56.416 E25.38417
G1 X174.296 Y58.869 E25.58716
G1 X177.82 Y60.903 E25.79016
G1 X179.654 Y61.688 E25.88968
G1 X180.544 Y62.069 E25.93798
G1 X179.576 Y62.07 E25.96263
G1 X179.575 Y62.071 E25.9627
G1 X142.44 Y62.165 E27.81538
G1 X142.38 Y61.797 E27.83398
G1 X142.033 Y60.423 E27.90468
G1 X141.52 Y59.096 E27.97566
G1 X140.846 Y57.842 E28.04669
G1 X140.024 Y56.682 E28.11762
G1 X139.067 Y55.631 E28.18853
G1 X137.986 Y54.705 E28.25955
G1 X136.8 Y53.919 E28.33053
G1 X135.527 Y53.285 E28.40148
G1 X134.185 Y52.813 E28.47245
G1 X132.796 Y52.509 E28.54339
G1 X131.379 Y52.378 E28.61439
G1 X129.96 Y52.421 E28.68521
G1 X128.556 Y52.639 E28.7561
G1 X127.388 Y52.953 E28.81644
G1 X125.792 Y58.979 E29.12744
G1 X125.594 Y59.729 E29.16614
G1 X125.406 Y58.977 E29.18608
G1 X124.76 Y56.401 E29.31858
G0 F3600 X124.56 Y56.401
G0 X124.56 Y55.901
G0 X125.26 Y54.966
G0 X125.615 Y56.563
;TYPE:SKIN
G1 F1500 X125.376 Y55.611 E29.36754
G1 X118.949 Y55.611 E29.68819
G1 X118.71 Y56.563 E29.73716
G1 X117.59 Y52.329 E29.95566
G1 X116.656 Y52.046 E30.00435
G1 X115.193 Y51.727 E30.07905
G1 X113.679 Y51.587 E30.15491
G1 X112.162 Y51.632 E30.23063
G1 X110.66 Y51.866 E30.30646
G1 X109.198 Y52.282 E30.3823
G1 X107.799 Y52.875 E30.45811
G1 X106.482 Y53.634 E30.53394
G1 X105.27 Y54.551 E30.60977
G1 X104.178 Y55.609 E30.68562
G1 X103.225 Y56.792 E30.76141
G1 X102.424 Y58.084 E30.83725
G1 X101.789 Y59.466 E30.91313
G1 X101.332 Y60.91 E30.98869
G1 X101.241 Y61.375 E31.01233
G1 X67.361 Y61.29 E32.70262
G1 X68.692 Y60.627 E32.7768
G1 X72.167 Y58.324 E32.98479
G1 X75.33 Y55.613 E33.19262
G1 X78.122 Y52.553 E33.39929
G1 X78.572 Y51.982 E33.43556
G1 X79.107 Y51.177 E33.48378
G1 X79.993 Y49.521 E33.57748
G1 X80.676 Y47.757 E33.67185
G1 X81.138 Y45.923 E33.76621
G1 X81.371 Y44.043 E33.86072
G1 X81.371 Y42.153 E33.95501
G1 X81.138 Y40.273 E34.04952
G1 X80.988 Y39.677 E34.08018
G1 X83.248 Y39.959 E34.19381
G1 X90.592 Y40.183 E34.56037
G1 X97.911 Y39.505 E34.92708
G1 X101.523 Y38.831 E35.1104
G1 X103.104 Y38.635 E35.18988
G1 X106.138 Y37.97 E35.34484
G1 X109.081 Y36.934 E35.5005
G1 X111.875 Y35.543 E35.65621
G1 X114.478 Y33.819 E35.81197
G1 X116.848 Y31.788 E35.96769
G1 X118.95 Y29.48 E36.12344
G1 X120.754 Y26.932 E36.27919
G1 X122.184 Y24.268 E36.43004
G1 X122.788 Y25.581 E36.50214
G1 X124.432 Y28.235 E36.65789
G1 X126.39 Y30.666 E36.81363
G1 X128.631 Y32.839 E36.96936
G1 X131.121 Y34.721 E37.12508
G1 X133.825 Y36.28 E37.2808
G1 X136.699 Y37.498 E37.43653
G1 X139.701 Y38.351 E37.59223
G1 X150.055 Y39.958 E38.11497
G1 X157.413 Y40.183 E38.48224
G1 X163.334 Y39.632 E38.77891
G1 X163.041 Y41.21 E38.85899
G1 X162.926 Y43.098 E38.95335
G1 X163.041 Y44.986 E39.04772
G1 X163.389 Y46.846 E39.14213
G1 X163.962 Y48.65 E39.23656
G1 X164.752 Y50.37 E39.33099
G1 X165.752 Y51.982 E39.42563
G1 X167.548 Y54.124 E39.56509
G1 X170.535 Y57.017 E39.77255
G1 X173.859 Y59.529 E39.98041
G1 X176.908 Y61.288 E40.15603
G1 X143.084 Y61.374 E41.84352
G1 X142.787 Y60.183 E41.90476
G1 X142.239 Y58.765 E41.9806
G1 X141.519 Y57.425 E42.05649
G1 X140.64 Y56.186 E42.13228
G1 X139.619 Y55.062 E42.20804
G1 X138.464 Y54.073 E42.2839
G1 X137.195 Y53.233 E42.35983
G1 X135.835 Y52.556 E42.43562
G1 X134.402 Y52.052 E42.5114
G1 X132.917 Y51.727 E42.58724
G1 X131.403 Y51.587 E42.6631
G1 X129.887 Y51.632 E42.73877
G1 X128.393 Y51.865 E42.8142
G1 X126.741 Y52.309 E42.89955
G1 X125.615 Y56.563 E43.11909
G0 F3600 X131.315 Y34.428
G0 X132.298 Y39.571
G0 X163.031 Y40.277
G1 F1500 X162.633 Y39.879 E43.14717
G0 F3600 X162.115 Y39.927
G1 F1500 X162.942 Y40.754 E43.20552
G1 X163.012 Y40.824
G0 F3600 X162.858 Y41.236
G1 F1500 X161.597 Y39.975 E43.29449
G1 X161.527 Y39.905
G0 F3600 X161.08 Y40.023
G1 F1500 X162.826 Y41.77 E43.41771
G1 X162.896 Y41.84
G0 F3600 X162.794 Y42.303
G1 F1500 X160.562 Y40.071 E43.57519
G1 X160.492 Y40.001
G0 F3600 X160.044 Y40.119
G1 F1500 X162.761 Y42.836 E43.76689
G1 X162.831 Y42.906
G0 F3600 X162.764 Y43.405
G1 F1500 X159.526 Y40.167 E43.99535
G1 X159.456 Y40.097
G0 F3600 X159.009 Y40.215
G1 F1500 X162.801 Y44.007 E44.2629
G1 X162.871 Y44.077
G0 F3600 X162.837 Y44.609
G1 F1500 X158.491 Y40.263 E44.56953
G1 X158.421 Y40.193
G0 F3600 X157.974 Y40.311
G1 F1500 X162.906 Y45.243 E44.91751
G1 X162.976 Y45.313
G0 F3600 X163.036 Y45.939
G1 F1500 X157.456 Y40.359 E45.31121
G1 X157.386 Y40.289
G0 F3600 X156.878 Y40.346
G1 F1500 X163.167 Y46.635 E45.75493
G1 X163.237 Y46.705
G0 F3600 X163.381 Y47.415
G1 F1500 X156.294 Y40.329 E46.25492
G1 X156.224 Y40.259
G0 F3600 X155.711 Y40.311
G1 F1500 X163.643 Y48.243 E46.81457
G1 X163.713 Y48.313
G0 F3600 X164 Y49.166
G1 F1500 X155.127 Y40.293 E47.44061
G1 X155.057 Y40.223
G0 F3600 X154.544 Y40.276
G1 F1500 X164.48 Y50.211 E48.14161
G1 X164.55 Y50.281
G0 F3600 X165.302 Y51.599
G1 F1500 X153.96 Y40.257 E48.94185
G1 X153.89 Y40.187
G0 F3600 X153.377 Y40.24
G1 F1500 X174.251 Y61.114 E50.41462
G1 X174.321 Y61.184
G0 F3600 X174.815 Y61.113
G1 F1500 X172.218 Y58.515 E50.59789
G1 X172.148 Y58.445
G0 F3600 X174.207 Y59.938
G1 F1500 X175.38 Y61.111 E50.68065
G1 X175.45 Y61.181
G0 F3600 X175.542 Y60.708
G1 F1500 X175.944 Y61.11 E50.70902
G0 F3600 X173.687 Y61.115
G1 F1500 X152.793 Y40.222 E52.18316
G1 X152.723 Y40.152
G0 F3600 X152.21 Y40.204
G1 F1500 X173.123 Y61.118 E53.65873
G1 X173.193 Y61.188
G0 F3600 X172.559 Y61.119
G1 F1500 X151.627 Y40.186 E55.13563
G1 X151.557 Y40.116
G0 F3600 X151.043 Y40.169
G1 F1500 X171.995 Y61.12 E56.61387
G1 X172.065 Y61.19
G0 F3600 X171.43 Y61.122
G1 F1500 X150.46 Y40.151 E58.09345
G1 X150.39 Y40.081
G0 F3600 X149.852 Y40.109
G1 F1500 X170.866 Y61.123 E59.5761
G1 X170.936 Y61.193
G0 F3600 X170.302 Y61.125
G1 F1500 X149.182 Y40.005 E61.06623
G1 X149.112 Y39.935
G0 F3600 X148.512 Y39.901
G1 F1500 X169.738 Y61.126 E62.5638
G1 X169.808 Y61.196
G0 F3600 X169.173 Y61.127
G1 F1500 X147.843 Y39.797 E64.06875
G1 X147.773 Y39.727
G0 F3600 X147.173 Y39.693
G1 F1500 X168.609 Y61.129 E65.58118
G1 X168.679 Y61.199
G0 F3600 X168.045 Y61.13
G1 F1500 X146.504 Y39.589 E67.10101
G1 X146.434 Y39.519
G0 F3600 X145.834 Y39.485
G1 F1500 X167.481 Y61.132 E68.62832
G1 X167.551 Y61.202
G0 F3600 X166.916 Y61.133
G1 F1500 X145.164 Y39.381 E70.16304
G1 X145.094 Y39.311
G0 F3600 X144.495 Y39.277
G1 F1500 X166.352 Y61.135 E71.70521
G1 X166.422 Y61.205
G0 F3600 X165.788 Y61.136
G1 F1500 X143.825 Y39.173 E73.25482
G1 X143.755 Y39.103
G0 F3600 X143.155 Y39.069
G1 F1500 X165.223 Y61.137 E74.81183
G1 X165.293 Y61.207
G0 F3600 X164.659 Y61.139
G1 F1500 X142.486 Y38.965 E76.37629
G1 X142.416 Y38.895
G0 F3600 X141.816 Y38.861
G1 F1500 X164.095 Y61.14 E77.9482
G1 X164.165 Y61.21
G0 F3600 X163.531 Y61.142
G1 F1500 X141.146 Y38.757 E79.52758
G1 X141.076 Y38.687
G0 F3600 X140.477 Y38.653
G1 F1500 X162.966 Y61.143 E81.11434
G1 X163.036 Y61.213
G0 F3600 X162.402 Y61.144
G1 F1500 X139.807 Y38.55 E82.7085
G1 X139.737 Y38.48
G0 F3600 X139.044 Y38.352
G1 F1500 X161.838 Y61.146 E84.31674
G1 X161.908 Y61.216
G0 F3600 X161.274 Y61.147
G1 F1500 X138.254 Y38.127 E85.94093
G1 X138.184 Y38.057
G0 F3600 X137.464 Y37.903
G1 F1500 X160.709 Y61.149 E87.58102
G1 X160.779 Y61.219
G0 F3600 X160.145 Y61.15
G1 F1500 X136.674 Y37.679 E89.23703
G1 X136.604 Y37.609
G0 F3600 X135.7 Y37.271
G1 F1500 X159.581 Y61.152 E90.92196
G1 X159.651 Y61.222
G0 F3600 X159.017 Y61.153
G1 F1500 X134.717 Y36.854 E92.63642
G1 X134.647 Y36.784
G0 F3600 X133.732 Y36.435
G1 F1500 X158.453 Y61.155 E94.38059
G1 X158.523 Y61.225
G0 F3600 X157.889 Y61.156
G1 F1500 X132.397 Y35.665 E96.17915
G1 X132.327 Y35.595
G0 F3600 X131.061 Y34.895
G1 F1500 X157.324 Y61.158 E98.03215
G1 X157.394 Y61.228
G0 F3600 X156.76 Y61.159
G1 F1500 X128.773 Y33.172 E100.00678
G1 X128.703 Y33.102
G0 F3600 X125.712 Y30.112
G1 F1500 X121.507 Y25.906 E100.3035
G1 X121.437 Y25.836
G0 F3600 X121.705 Y25.538
G1 F1500 X123.924 Y27.758 E100.4601
G1 X123.994 Y27.828
G0 F3600 X123.003 Y26.271
G1 F1500 X121.903 Y25.17 E100.53774
G1 X121.833 Y25.1
G0 F3600 X122.1 Y24.802
G1 F1500 X122.342 Y25.045 E100.55485
G0 F3600 X121.309 Y26.274
G1 F1500 X156.196 Y61.161 E103.01632
G1 X156.266 Y61.231
G0 F3600 X155.632 Y61.162
G1 F1500 X121.112 Y26.643 E105.45186
G1 X121.042 Y26.573
G0 F3600 X120.914 Y27.01
G1 F1500 X155.067 Y61.164 E107.86157
G1 X155.137 Y61.234
G0 F3600 X154.503 Y61.165
G1 F1500 X120.681 Y27.343 E110.2479
G1 X120.611 Y27.273
G0 F3600 X120.447 Y27.674
G1 F1500 X153.939 Y61.166 E112.61094
G1 X154.009 Y61.236
G0 F3600 X153.374 Y61.168
G1 F1500 X120.212 Y28.005 E114.95073
G1 X120.142 Y27.935
G0 F3600 X119.978 Y28.337
G1 F1500 X152.81 Y61.169 E117.26721
G1 X152.88 Y61.239
G0 F3600 X152.246 Y61.171
G1 F1500 X119.743 Y28.668 E119.56047
G1 X119.673 Y28.598
G0 F3600 X119.509 Y28.999
G1 F1500 X151.682 Y61.172 E121.83045
G1 X151.752 Y61.242
G0 F3600 X151.117 Y61.173
G1 F1500 X119.274 Y29.33 E124.07714
G1 X119.204 Y29.26
G0 F3600 X119.032 Y29.654
G1 F1500 X150.553 Y61.175 E126.30112
G1 X150.623 Y61.245
G0 F3600 X149.989 Y61.176
G1 F1500 X118.763 Y29.95 E128.50428
G1 X118.693 Y29.88
G0 F3600 X118.494 Y30.247
G1 F1500 X149.425 Y61.178 E130.68663
G1 X149.495 Y61.248
G0 F3600 X148.86 Y61.179
G1 F1500 X118.224 Y30.543 E132.84817
G1 X118.154 Y30.473
G0 F3600 X117.954 Y30.839
G1 F1500 X148.296 Y61.181 E134.98896
G1 X148.366 Y61.251
G0 F3600 X147.732 Y61.182
G1 F1500 X117.685 Y31.135 E137.10894
G1 X117.615 Y31.065
G0 F3600 X117.415 Y31.431
G1 F1500 X147.168 Y61.183 E139.20814
G1 X147.238 Y61.253
G0 F3600 X146.603 Y61.185
G1 F1500 X117.146 Y31.727 E141.28652
G1 X117.076 Y31.657
G0 F3600 X116.864 Y32.011
G1 F1500 X146.039 Y61.186 E143.34498
G1 X146.109 Y61.256
G0 F3600 X145.475 Y61.188
G1 F1500 X141.733 Y57.446 E143.60899
G1 X141.663 Y57.376
G0 F3600 X142.391 Y58.67
G1 F1500 X144.91 Y61.189 E143.78672
G1 X144.98 Y61.259
G0 F3600 X144.346 Y61.19
G1 F1500 X142.751 Y59.595 E143.89926
G1 X142.681 Y59.525
G0 F3600 X143.036 Y60.446
G1 F1500 X143.782 Y61.192 E143.95189
G1 X143.852 Y61.262
G0 F3600 X140.367 Y56.406
G0 X137.517 Y53.23
G1 F1500 X116.559 Y32.272 E145.43059
G1 X116.489 Y32.202
G0 F3600 X116.255 Y32.533
G1 F1500 X136.315 Y52.593 E146.84594
G1 X136.385 Y52.663
G0 F3600 X135.35 Y52.195
G1 F1500 X115.95 Y32.794 E148.21475
G1 X115.88 Y32.724
G0 F3600 X115.645 Y33.055
G1 F1500 X134.478 Y51.888 E149.54352
G1 X134.548 Y51.958
G0 F3600 X133.749 Y51.725
G1 F1500 X115.341 Y33.316 E150.84233
