;FLAVOR:Marlin
;TIME:20938
;Filament used: 19.744m
;Layer height: 0.2
;Generated with Cura_SteamEngine 3.3.1
M104 S205
M109 S205
M82 ;absolute extrusion mode
G28 ;Home
G1 Z15.0 F6000 ;Move the platform down 15mm
;Prime the extruder
G92 E0
G1 F200 E3
G92 E0
G92 E0
G1 F1500 E-6.5
;LAYER_COUNT:22
;LAYER:0
M107
G0 F3600 X39.214 Y119.813 Z0.3
;TYPE:WALL-INNER
G1 F1500 E0
G1 X40.469 Y119.562 E0.06385
G1 X41.532 Y118.851 E0.12765
G1 X42.243 Y117.788 E0.19146
G1 X42.493 Y116.534 E0.25525
G1 X42.243 Y115.279 E0.31909
G1 X41.532 Y114.216 E0.3829
G1 X40.469 Y113.505 E0.4467
G1 X39.214 Y113.254 E0.51055
G1 X37.959 Y113.505 E0.5744
G1 X36.896 Y114.216 E0.63821
G1 X36.184 Y115.279 E0.70204
G1 X35.935 Y116.534 E0.76587
G1 X36.184 Y117.788 E0.82965
G1 X36.896 Y118.851 E0.89348
G1 X37.959 Y119.562 E0.95729
G1 X39.214 Y119.813 E1.02114
G0 F3600 X39.214 Y119.913
G0 X88.782 Y114.288
G0 X92.482 Y114.115
G0 X96.181 Y114.288
G0 X99.744 Y114.803
G0 X103.041 Y115.641
G0 X105.95 Y116.779
G0 X108.369 Y118.182
G0 X110.208 Y119.82
G0 X111.95 Y122.254
G0 X111.858 Y122.292
G1 F1500 X110.732 Y120.635 E1.12109
G1 X110.637 Y120.568 E1.12689
G1 X110.178 Y119.845 E1.16961
G1 X108.346 Y118.214 E1.29198
G1 X105.933 Y116.815 E1.43114
G1 X103.029 Y115.679 E1.58671
G1 X99.737 Y114.842 E1.75618
G1 X96.178 Y114.327 E1.93558
G1 X92.482 Y114.155 E2.12018
G1 X88.785 Y114.327 E2.30482
G1 X85.226 Y114.842 E2.48423
G1 X81.934 Y115.679 E2.65369
G1 X79.031 Y116.815 E2.80922
G1 X76.618 Y118.214 E2.94837
G1 X75.746 Y118.991 E3.00664
G1 X75.608 Y119.037 E3.0139
G1 X74.488 Y119.904 E3.08456
G1 X73.598 Y121.126 E3.15999
G1 X72.954 Y122.64 E3.24207
G1 X72.562 Y124.39 E3.33154
G1 X72.427 Y126.311 E3.42762
G1 X72.548 Y128.338 E3.52892
G1 X72.917 Y130.399 E3.63338
G1 X73.522 Y132.423 E3.73877
G1 X74.34 Y134.333 E3.84244
G1 X75.341 Y136.065 E3.94224
G1 X76.497 Y137.552 E4.03621
G1 X76.802 Y137.839 E4.0571
G1 X77.384 Y138.696 E4.10878
G1 X79.161 Y139.941 E4.21703
G1 X81.478 Y140.747 E4.33942
G1 X84.242 Y141.117 E4.47855
G1 X87.359 Y141.054 E4.63409
G1 X90.721 Y140.568 E4.80356
G1 X94.206 Y139.681 E4.98297
G1 X97.687 Y138.427 E5.16757
G1 X101.036 Y136.852 E5.3522
G1 X104.128 Y135.015 E5.53163
G1 X106.849 Y132.981 E5.70112
G1 X109.097 Y130.821 E5.85666
G1 X110.789 Y128.605 E5.99576
G1 X111.858 Y126.396 E6.11819
G1 X112.234 Y124.259 E6.22644
G1 X111.858 Y122.292 E6.32635
G0 F3600 X111.95 Y122.254
G0 X132.986 Y122.254
G0 X133.078 Y122.292
G1 F1500 X132.702 Y124.26 E6.42631
G1 X133.079 Y126.396 E6.53453
G1 X134.147 Y128.605 E6.65694
G1 X135.839 Y130.821 E6.79604
G1 X138.088 Y132.981 E6.95161
G1 X140.808 Y135.015 E7.12106
G1 X143.9 Y136.852 E7.30049
G1 X147.249 Y138.427 E7.48512
G1 X150.73 Y139.681 E7.66972
G1 X154.216 Y140.568 E7.84918
G1 X157.577 Y141.054 E8.0186
G1 X160.695 Y141.117 E8.17419
G1 X163.459 Y140.747 E8.31332
G1 X165.775 Y139.941 E8.43566
G1 X167.553 Y138.696 E8.54395
G1 X168.133 Y137.84 E8.59554
G1 X168.439 Y137.552 E8.6165
G1 X169.595 Y136.065 E8.71047
G1 X170.597 Y134.334 E8.81025
G1 X171.415 Y132.423 E8.91396
G1 X172.019 Y130.399 E9.01934
G1 X172.388 Y128.338 E9.1238
G1 X172.509 Y126.311 E9.2251
G1 X172.374 Y124.39 E9.32118
G1 X171.982 Y122.64 E9.41065
G1 X171.338 Y121.126 E9.49273
G1 X170.448 Y119.904 E9.56816
G1 X169.329 Y119.037 E9.63878
G1 X169.191 Y118.991 E9.64604
G1 X168.319 Y118.214 E9.70431
G1 X165.906 Y116.815 E9.84346
G1 X163.002 Y115.679 E9.99903
G1 X159.71 Y114.842 E10.1685
G1 X156.151 Y114.327 E10.3479
G1 X152.455 Y114.155 E10.5325
G1 X148.758 Y114.327 E10.71714
G1 X145.199 Y114.842 E10.89655
G1 X141.907 Y115.679 E11.06601
G1 X139.004 Y116.815 E11.22154
G1 X136.591 Y118.214 E11.36069
G1 X134.759 Y119.845 E11.48307
G1 X134.301 Y120.566 E11.52568
G1 X134.204 Y120.632 E11.53154
G1 X133.078 Y122.292 E11.63161
G0 F3600 X132.986 Y122.254
G0 X134.729 Y119.82
G0 X136.568 Y118.182
G0 X138.987 Y116.779
G0 X141.895 Y115.641
G0 X145.192 Y114.803
G0 X148.755 Y114.288
G0 X152.455 Y114.115
G0 X155.451 Y114.254
G0 X211.074 Y119.913
G0 X211.074 Y119.813
G1 F1500 X212.328 Y119.562 E11.69541
G1 X213.391 Y118.851 E11.75921
G1 X214.103 Y117.788 E11.82304
G1 X214.353 Y116.534 E11.88684
G1 X214.103 Y115.279 E11.95068
G1 X213.391 Y114.216 E12.01451
G1 X212.328 Y113.505 E12.07831
G1 X211.074 Y113.254 E12.14212
G1 X209.818 Y113.505 E12.20602
G1 X208.755 Y114.216 E12.26982
G1 X208.044 Y115.279 E12.33362
G1 X207.795 Y116.534 E12.39746
G1 X208.044 Y117.788 E12.46124
G1 X208.755 Y118.851 E12.52504
G1 X209.818 Y119.562 E12.58885
G1 X211.074 Y119.813 E12.65275
G0 F3600 X211.074 Y119.913
G0 X187.383 Y182.503
G0 X187.369 Y182.601
G1 F1500 X187.18 Y182.79 E12.66608
G1 X175.901 Y194.013 E13.4599
G1 X160.051 Y204.287 E14.40226
G1 X142.875 Y210.606 E15.31532
G1 X125.011 Y212.739 E16.21289
G1 X107.147 Y210.606 E17.11046
G1 X89.97 Y204.287 E18.02357
G1 X74.12 Y194.013 E18.96593
G1 X63.42 Y183.367 E19.71897
G1 X63.231 Y183.178 E19.7323
G1 X63.105 Y183.414 E19.74029
G1 X37.168 Y231.9 E22.48362
G1 X36.793 Y232.602 E22.52333
G1 X36.793 Y231.807 E22.54375
G1 X36.793 Y231.805 E22.54385
G1 X36.793 Y129.95 E27.62541
G1 X35.096 Y123.169 E27.97415
G1 X34.497 Y115.79 E28.3435
G1 X68.865 Y19.724 E33.43373
G1 X69.253 Y18.64 E33.49117
G1 X69.253 Y19.791 E33.52031
G1 X69.253 Y19.792 E33.52036
G1 X69.253 Y75.38 E36.29365
G1 X68.586 Y75.975 E36.33825
G1 X68.419 Y76.124 E36.34941
G1 X68.586 Y76.273 E36.3564
G1 X70.089 Y77.615 E36.45692
G1 X73.412 Y78.58 E36.62956
G1 X78.594 Y79.433 E36.89157
G1 X85.525 Y80.176 E37.23934
G1 X93.956 Y80.785 E37.66106
G1 X103.568 Y81.238 E38.14113
G1 X104.519 Y81.262 E38.18859
G1 X121.344 Y71.972 E39.14745
G1 X121.64 Y71.809 E39.16431
G1 X121.64 Y72.146 E39.17388
G1 X121.64 Y72.148 E39.17398
G1 X121.632 Y81.387 E39.63491
G1 X121.632 Y81.587 E39.64489
G1 X121.832 Y81.587 E39.65135
G1 X122.662 Y81.587 E39.69276
G1 X122.862 Y81.587 E39.70274
G1 X122.862 Y81.387 E39.7092
G1 X122.843 Y72.148 E40.17014
G1 X122.843 Y72.146 E40.17024
G1 X122.843 Y71.809 E40.18705
G1 X123.139 Y71.972 E40.19664
G1 X140.213 Y81.394 E41.16956
G1 X146.099 Y81.238 E41.46332
G1 X155.71 Y80.785 E41.94334
G1 X164.14 Y80.176 E42.36501
G1 X171.071 Y79.433 E42.71278
G1 X176.253 Y78.58 E42.97479
G1 X179.577 Y77.615 E43.14748
G1 X181.08 Y76.273 E43.248
G1 X181.247 Y76.124 E43.25917
G1 X181.08 Y75.975 E43.26615
G1 X180.591 Y75.539 E43.29884
G1 X180.591 Y19.615 E46.0889
G1 X180.591 Y19.614 E46.08895
G1 X180.591 Y18.463 E46.14637
G1 X180.979 Y19.547 E46.17552
G1 X215.503 Y116.051 E51.28894
G1 X214.925 Y123.169 E51.64523
G1 X214.115 Y126.402 E51.81151
G1 X214.115 Y231.805 E57.07009
G1 X214.115 Y231.807 E57.07018
G1 X214.115 Y232.602 E57.10985
G1 X213.74 Y231.9 E57.13029
G1 X187.495 Y182.837 E59.90625
G1 X187.369 Y182.601 E59.91424
G0 F3600 X187.27 Y183.264
;TYPE:WALL-OUTER
G1 F1500 X187.081 Y183.453 E59.92757
G1 X176.153 Y194.327 E60.6967
G1 X160.235 Y204.645 E61.6431
G1 X142.968 Y210.997 E62.56099
G1 X125.011 Y213.142 E63.46324
G1 X107.054 Y210.997 E64.36549
G1 X89.786 Y204.645 E65.28343
G1 X73.868 Y194.327 E66.22982
G1 X63.519 Y184.03 E66.95817
G1 X63.33 Y183.841 E66.9715
G1 X63.204 Y184.077 E66.97949
G1 X36.768 Y233.497 E69.77565
G1 X36.393 Y234.199 E69.81536
G1 X36.393 Y233.404 E69.83578
G1 X36.393 Y233.402 E69.83588
G1 X36.393 Y129.999 E74.99467
G1 X34.7 Y123.232 E75.34269
G1 X34.091 Y115.736 E75.7179
G1 X69.265 Y17.417 E80.9275
G1 X69.653 Y16.333 E80.98494
G1 X69.653 Y17.484 E81.01408
G1 X69.653 Y17.485 E81.01413
G1 X69.653 Y75.559 E83.91145
G1 X69.187 Y75.975 E83.94262
G1 X69.02 Y76.124 E83.95378
G1 X69.187 Y76.273 E83.96077
G1 X70.288 Y77.256 E84.03441
G1 X73.501 Y78.189 E84.20132
G1 X78.648 Y79.036 E84.46156
G1 X85.561 Y79.778 E84.80843
G1 X93.98 Y80.386 E85.22955
G1 X103.582 Y80.838 E85.70913
G1 X104.421 Y80.859 E85.751
G1 X121.745 Y71.294 E86.73829
G1 X122.041 Y71.131 E86.75514
G1 X122.041 Y71.468 E86.76471
G1 X122.041 Y71.47 E86.76481
G1 X122.032 Y80.987 E87.23962
G1 X122.032 Y81.187 E87.24959
G1 X122.232 Y81.187 E87.25605
G1 X122.261 Y81.187 E87.2575
G1 X122.461 Y81.187 E87.26748
G1 X122.461 Y80.987 E87.27394
G1 X122.442 Y71.47 E87.74875
G1 X122.442 Y71.468 E87.74885
G1 X122.442 Y71.131 E87.76566
G1 X122.738 Y71.294 E87.77525
G1 X140.311 Y80.991 E88.77659
G1 X146.084 Y80.838 E89.06471
G1 X155.686 Y80.386 E89.54429
G1 X164.104 Y79.778 E89.96536
G1 X171.017 Y79.036 E90.31223
G1 X176.164 Y78.189 E90.57247
G1 X179.378 Y77.256 E90.73943
G1 X180.479 Y76.273 E90.81307
G1 X180.646 Y76.124 E90.82424
G1 X180.479 Y75.975 E90.83122
G1 X180.191 Y75.718 E90.85048
G1 X180.191 Y17.308 E93.76457
G1 X180.191 Y17.307 E93.76462
G1 X180.191 Y16.156 E93.82204
G1 X180.579 Y17.24 E93.85118
G1 X215.909 Y115.997 E99.08399
G1 X215.321 Y123.232 E99.44613
G1 X214.515 Y126.451 E99.61169
G1 X214.515 Y233.402 E104.94749
G1 X214.515 Y233.404 E104.94759
G1 X214.515 Y234.199 E104.98726
G1 X214.14 Y233.497 E105.0077
G1 X187.396 Y183.5 E107.83649
G1 X187.27 Y183.264 E107.84448
G0 F3600 X187.129 Y183.405
G0 X186.777 Y183.05
G0 X210.977 Y119.895
G0 X211.074 Y119.405
G1 F1500 X212.172 Y119.185 E107.90035
G1 X213.103 Y118.563 E107.95621
G1 X213.726 Y117.632 E108.0121
G1 X213.945 Y116.534 E108.06795
G1 X213.726 Y115.435 E108.12386
G1 X213.103 Y114.504 E108.17975
G1 X212.172 Y113.882 E108.23561
G1 X211.074 Y113.662 E108.29148
G1 X209.974 Y113.882 E108.34744
G1 X209.043 Y114.504 E108.4033
G1 X208.421 Y115.435 E108.45916
G1 X208.203 Y116.534 E108.51506
G1 X208.421 Y117.632 E108.57091
G1 X209.043 Y118.563 E108.62677
G1 X209.974 Y119.185 E108.68263
G1 X211.074 Y119.405 E108.7386
G0 F3600 X211.27 Y119.366
G0 X211.367 Y119.857
G0 X165.793 Y139.976
G0 X163.468 Y140.785
G0 X160.697 Y141.156
G0 X157.574 Y141.093
G0 X154.209 Y140.607
G0 X150.719 Y139.719
G0 X147.234 Y138.463
G0 X143.882 Y136.887
G0 X140.786 Y135.048
G0 X138.063 Y133.011
G0 X135.81 Y130.847
G0 X134.113 Y128.625
G0 X133.041 Y126.408
G0 X132.662 Y124.26
G0 X132.965 Y122.354
G0 X133.455 Y122.448
G1 F1500 X133.109 Y124.263 E108.83078
G1 X133.463 Y126.272 E108.93255
G1 X134.489 Y128.394 E109.05014
G1 X136.138 Y130.554 E109.18572
G1 X138.347 Y132.675 E109.33851
G1 X141.031 Y134.682 E109.50571
G1 X144.088 Y136.498 E109.6831
G1 X147.402 Y138.057 E109.86582
G1 X150.847 Y139.298 E110.0485
G1 X154.294 Y140.175 E110.22595
G1 X157.61 Y140.655 E110.39311
G1 X160.672 Y140.716 E110.54591
G1 X163.366 Y140.356 E110.68151
G1 X165.591 Y139.581 E110.79905
G1 X167.263 Y138.411 E110.90086
G1 X167.829 Y137.576 E110.95119
G1 X168.142 Y137.282 E110.97262
G1 X169.262 Y135.841 E111.06367
G1 X170.239 Y134.154 E111.16093
G1 X171.038 Y132.287 E111.26225
G1 X171.629 Y130.306 E111.36538
G1 X171.99 Y128.291 E111.46751
G1 X172.108 Y126.313 E111.56637
G1 X171.977 Y124.448 E111.65964
G1 X171.6 Y122.763 E111.74579
G1 X170.988 Y121.325 E111.82376
G1 X170.158 Y120.185 E111.89411
G1 X169.138 Y119.395 E111.95848
G1 X168.985 Y119.344 E111.96652
G1 X168.083 Y118.54 E112.0268
G1 X165.732 Y117.176 E112.16241
G1 X162.879 Y116.061 E112.31523
G1 X159.632 Y115.235 E112.48238
G1 X156.113 Y114.726 E112.65977
G1 X152.455 Y114.555 E112.84247
G1 X148.796 Y114.726 E113.02522
G1 X145.277 Y115.235 E113.20261
G1 X142.03 Y116.061 E113.36976
G1 X139.178 Y117.176 E113.52253
G1 X136.827 Y118.54 E113.65814
G1 X135.067 Y120.107 E113.7757
G1 X134.596 Y120.848 E113.81951
G1 X134.493 Y120.919 E113.82575
G1 X133.455 Y122.448 E113.91795
G0 F3600 X133.418 Y122.644
G0 X132.928 Y122.551
G0 X111.894 Y122.169
G0 X111.481 Y122.448
G1 F1500 X110.442 Y120.92 E114.01014
G1 X110.343 Y120.85 E114.01619
G1 X109.87 Y120.107 E114.06013
G1 X108.11 Y118.54 E114.17769
G1 X105.759 Y117.176 E114.3133
G1 X102.906 Y116.061 E114.46612
G1 X99.659 Y115.235 E114.63327
G1 X96.14 Y114.726 E114.81066
G1 X92.482 Y114.555 E114.99336
G1 X88.823 Y114.726 E115.17611
G1 X85.304 Y115.235 E115.3535
G1 X82.057 Y116.061 E115.52065
G1 X79.205 Y117.176 E115.67342
G1 X76.854 Y118.54 E115.80903
G1 X75.952 Y119.344 E115.86931
G1 X75.799 Y119.395 E115.87736
G1 X74.778 Y120.185 E115.94176
G1 X73.948 Y121.325 E116.01211
G1 X73.336 Y122.763 E116.09008
G1 X72.959 Y124.448 E116.17623
G1 X72.828 Y126.313 E116.2695
G1 X72.946 Y128.291 E116.36836
G1 X73.307 Y130.306 E116.47049
G1 X73.899 Y132.287 E116.57364
G1 X74.698 Y134.154 E116.67496
G1 X75.674 Y135.841 E116.77219
G1 X76.794 Y137.282 E116.86324
G1 X77.108 Y137.577 E116.88474
G1 X77.674 Y138.411 E116.93503
G1 X79.345 Y139.581 E117.0368
G1 X81.571 Y140.356 E117.15439
G1 X84.265 Y140.716 E117.28999
G1 X87.326 Y140.655 E117.44273
G1 X90.643 Y140.175 E117.60994
G1 X94.089 Y139.298 E117.78734
G1 X97.534 Y138.057 E117.97003
G1 X100.848 Y136.498 E118.15274
G1 X103.905 Y134.682 E118.33014
G1 X106.59 Y132.675 E118.49738
G1 X108.798 Y130.554 E118.65013
G1 X110.447 Y128.394 E118.78571
G1 X111.474 Y126.272 E118.90332
G1 X111.827 Y124.262 E119.00513
G1 X111.481 Y122.448 E119.09727
G0 F3600 X111.369 Y122.283
G0 X111.782 Y122.003
G0 X110.208 Y119.82
G0 X108.369 Y118.182
G0 X105.95 Y116.779
G0 X103.041 Y115.641
G0 X99.744 Y114.803
G0 X96.181 Y114.288
G0 X92.482 Y114.115
G0 X89.152 Y114.27
G0 X39.117 Y119.895
G0 X39.214 Y119.405
G1 F1500 X40.313 Y119.185 E119.15318
G1 X41.244 Y118.563 E119.20904
G1 X41.866 Y117.632 E119.2649
G1 X42.085 Y116.534 E119.32076
G1 X41.866 Y115.435 E119.37667
G1 X41.244 Y114.504 E119.43253
G1 X40.313 Y113.882 E119.48839
G1 X39.214 Y113.662 E119.54431
G1 X38.115 Y113.882 E119.60023
G1 X37.184 Y114.504 E119.65609
G1 X36.561 Y115.435 E119.71197
G1 X36.343 Y116.534 E119.76787
G1 X36.561 Y117.632 E119.82372
G1 X37.184 Y118.563 E119.87961
G1 X38.115 Y119.185 E119.93547
G1 X39.214 Y119.405 E119.99138
G0 F3600 X39.41 Y119.366
G0 X39.507 Y119.857
G0 X39.214 Y120.211
;TYPE:SKIN
G1 F1500 X40.621 Y119.929 E120.06298
G1 X41.813 Y119.132 E120.13451
G1 X42.61 Y117.94 E120.20605
G1 X42.891 Y116.534 E120.27758
G1 X42.61 Y115.127 E120.34917
G1 X41.813 Y113.935 E120.4207
G1 X40.621 Y113.138 E120.49224
G1 X39.214 Y112.856 E120.56383
G1 X37.807 Y113.138 E120.63542
G1 X36.615 Y113.935 E120.70696
G1 X35.817 Y115.127 E120.77853
G1 X35.537 Y116.534 E120.8501
G1 X35.817 Y117.94 E120.92162
G1 X36.615 Y119.132 E120.99319
G1 X37.807 Y119.929 E121.06473
G1 X39.214 Y120.211 E121.13632
G0 F3600 X35.481 Y123.103
G1 F1500 X34.891 Y115.844 E121.49966
G1 X68.863 Y20.887 E126.53114
G1 X68.863 Y75.206 E129.24113
G1 X67.834 Y76.124 E129.30993
G1 X69.896 Y77.964 E129.4478
G1 X73.326 Y78.961 E129.62601
G1 X78.541 Y79.819 E129.88968
G1 X85.49 Y80.564 E130.23836
G1 X93.933 Y81.175 E130.66068
G1 X103.554 Y81.628 E131.14121
G1 X104.615 Y81.654 E131.19416
G1 X121.25 Y72.47 E132.14216
G1 X121.242 Y81.977 E132.61647
G1 X123.252 Y81.977 E132.71675
G1 X123.235 Y72.47 E133.19105
G1 X140.117 Y81.786 E134.15303
G1 X146.113 Y81.628 E134.45227
G1 X155.733 Y81.175 E134.93275
G1 X164.175 Y80.564 E135.35502
G1 X171.124 Y79.819 E135.7037
G1 X176.339 Y78.961 E135.96737
G1 X179.77 Y77.964 E136.14563
G1 X181.832 Y76.124 E136.2835
G1 X180.981 Y75.365 E136.34039
G1 X180.981 Y20.71 E139.06714
G1 X215.109 Y116.105 E144.12182
G1 X214.54 Y123.103 E144.4721
G1 X213.725 Y126.354 E144.63931
G1 X213.725 Y231.046 E149.86242
G1 X187.466 Y181.955 E152.63994
G1 X175.652 Y193.71 E153.47141
G1 X159.877 Y203.936 E154.40932
G1 X142.787 Y210.223 E155.31781
G1 X125.011 Y212.345 E156.21095
G1 X107.235 Y210.223 E157.1041
G1 X90.144 Y203.936 E158.01263
G1 X74.369 Y193.71 E158.95054
G1 X63.134 Y182.532 E159.74122
G1 X37.183 Y231.046 E162.48612
G1 X37.183 Y129.902 E167.53221
G1 X35.481 Y123.103 E167.88188
G0 F3600 X72.175 Y124.333
G1 F1500 X72.037 Y126.309 E167.98071
G1 X72.16 Y128.384 E168.08441
G1 X72.537 Y130.489 E168.1911
G1 X73.155 Y132.556 E168.29874
G1 X73.991 Y134.508 E168.40468
G1 X75.017 Y136.283 E168.50696
G1 X76.208 Y137.815 E168.60377
G1 X76.504 Y138.094 E168.62407
G1 X77.101 Y138.975 E168.67716
G1 X78.982 Y140.292 E168.79172
G1 X81.387 Y141.129 E168.91876
G1 X84.22 Y141.507 E169.06136
G1 X87.391 Y141.444 E169.21959
G1 X90.797 Y140.951 E169.39129
G1 X94.321 Y140.054 E169.5727
G1 X97.837 Y138.788 E169.75914
G1 X101.219 Y137.197 E169.94561
G1 X104.345 Y135.34 E170.12701
G1 X107.102 Y133.279 E170.29874
G1 X109.389 Y131.082 E170.45696
G1 X111.123 Y128.81 E170.59955
G1 X112.233 Y126.517 E170.72665
